dist/img/logo.svg

<svg width="100" height="35" viewBox="0 0 100 35" fill="none" xmlns="http://www.w3.org/2000/svg">
<mask id="path-1-inside-1_0_59" fill="white">
<path fill-rule="evenodd" clip-rule="evenodd" d="M95.1312 4.55086H99.6787V0H95.1312V4.55086ZM99.6787 34.0695H95.1312V8.16041H99.6787V34.0695ZM30.9784 8.16063V34.0697H35.5258V12.7092H48.0086V34.0697H52.5561V8.16063H30.9784ZM57.1032 8.16063V34.0697H61.6518V12.7092H71.5072V34.0697H76.0558V12.7092H85.9113V34.0697H90.4587V8.16063H57.1032ZM4.54632 8.1504H21.381H25.9284V12.699V29.5325V34.08H21.381H4.54632H0V29.5325V12.699V8.1504H4.54632ZM21.381 29.5337H4.54632V12.699H21.381V29.5337Z"/>
</mask>
<path fill-rule="evenodd" clip-rule="evenodd" d="M95.1312 4.55086H99.6787V0H95.1312V4.55086ZM99.6787 34.0695H95.1312V8.16041H99.6787V34.0695ZM30.9784 8.16063V34.0697H35.5258V12.7092H48.0086V34.0697H52.5561V8.16063H30.9784ZM57.1032 8.16063V34.0697H61.6518V12.7092H71.5072V34.0697H76.0558V12.7092H85.9113V34.0697H90.4587V8.16063H57.1032ZM4.54632 8.1504H21.381H25.9284V12.699V29.5325V34.08H21.381H4.54632H0V29.5325V12.699V8.1504H4.54632ZM21.381 29.5337H4.54632V12.699H21.381V29.5337Z" fill="#FEFEFE"/>
<path d="M99.6787 4.55086V4.85086H99.9787V4.55086H99.6787ZM95.1312 4.55086H94.8312V4.85086H95.1312V4.55086ZM99.6787 0H99.9787V-0.3H99.6787V0ZM95.1312 0V-0.3H94.8312V0H95.1312ZM95.1312 34.0695H94.8312V34.3695H95.1312V34.0695ZM99.6787 34.0695V34.3695H99.9787V34.0695H99.6787ZM95.1312 8.16041V7.8604H94.8312V8.16041H95.1312ZM99.6787 8.16041H99.9787V7.8604H99.6787V8.16041ZM30.9784 34.0697H30.6784V34.3697H30.9784V34.0697ZM30.9784 8.16063V7.86063H30.6784V8.16063H30.9784ZM35.5258 34.0697V34.3697H35.8258V34.0697H35.5258ZM35.5258 12.7092V12.4092H35.2258V12.7092H35.5258ZM48.0086 12.7092H48.3086V12.4092H48.0086V12.7092ZM48.0086 34.0697H47.7086V34.3697H48.0086V34.0697ZM52.5561 34.0697V34.3697H52.8561V34.0697H52.5561ZM52.5561 8.16063H52.8561V7.86063H52.5561V8.16063ZM57.1032 34.0697H56.8032V34.3697H57.1032V34.0697ZM57.1032 8.16063V7.86063H56.8032V8.16063H57.1032ZM61.6518 34.0697V34.3697H61.9518V34.0697H61.6518ZM61.6518 12.7092V12.4092H61.3518V12.7092H61.6518ZM71.5072 12.7092H71.8072V12.4092H71.5072V12.7092ZM71.5072 34.0697H71.2072V34.3697H71.5072V34.0697ZM76.0558 34.0697V34.3697H76.3558V34.0697H76.0558ZM76.0558 12.7092V12.4092H75.7558V12.7092H76.0558ZM85.9113 12.7092H86.2113V12.4092H85.9113V12.7092ZM85.9113 34.0697H85.6113V34.3697H85.9113V34.0697ZM90.4587 34.0697V34.3697H90.7587V34.0697H90.4587ZM90.4587 8.16063H90.7587V7.86063H90.4587V8.16063ZM25.9284 8.1504H26.2284V7.8504H25.9284V8.1504ZM25.9284 34.08V34.38H26.2284V34.08H25.9284ZM0 34.08H-0.3V34.38H0V34.08ZM0 8.1504V7.8504H-0.3V8.1504H0ZM4.54632 29.5337H4.24632V29.8337H4.54632V29.5337ZM21.381 29.5337V29.8337H21.681V29.5337H21.381ZM4.54632 12.699V12.399H4.24632V12.699H4.54632ZM21.381 12.699H21.681V12.399H21.381V12.699ZM99.6787 4.25086H95.1312V4.85086H99.6787V4.25086ZM99.3787 0V4.55086H99.9787V0H99.3787ZM95.1312 0.3H99.6787V-0.3H95.1312V0.3ZM95.4313 4.55086V0H94.8312V4.55086H95.4313ZM95.1312 34.3695H99.6787V33.7695H95.1312V34.3695ZM94.8312 8.16041V34.0695H95.4313V8.16041H94.8312ZM99.6787 7.8604H95.1312V8.46041H99.6787V7.8604ZM99.9787 34.0695V8.16041H99.3787V34.0695H99.9787ZM31.2784 34.0697V8.16063H30.6784V34.0697H31.2784ZM35.5258 33.7697H30.9784V34.3697H35.5258V33.7697ZM35.2258 12.7092V34.0697H35.8258V12.7092H35.2258ZM48.0086 12.4092H35.5258V13.0092H48.0086V12.4092ZM48.3086 34.0697V12.7092H47.7086V34.0697H48.3086ZM52.5561 33.7697H48.0086V34.3697H52.5561V33.7697ZM52.2561 8.16063V34.0697H52.8561V8.16063H52.2561ZM30.9784 8.46063H52.5561V7.86063H30.9784V8.46063ZM57.4032 34.0697V8.16063H56.8032V34.0697H57.4032ZM61.6518 33.7697H57.1032V34.3697H61.6518V33.7697ZM61.3518 12.7092V34.0697H61.9518V12.7092H61.3518ZM71.5072 12.4092H61.6518V13.0092H71.5072V12.4092ZM71.8072 34.0697V12.7092H71.2072V34.0697H71.8072ZM76.0558 33.7697H71.5072V34.3697H76.0558V33.7697ZM75.7558 12.7092V34.0697H76.3558V12.7092H75.7558ZM85.9113 12.4092H76.0558V13.0092H85.9113V12.4092ZM86.2113 34.0697V12.7092H85.6113V34.0697H86.2113ZM90.4587 33.7697H85.9113V34.3697H90.4587V33.7697ZM90.1587 8.16063V34.0697H90.7587V8.16063H90.1587ZM57.1032 8.46063H90.4587V7.86063H57.1032V8.46063ZM21.381 7.8504H4.54632V8.4504H21.381V7.8504ZM25.9284 7.8504H21.381V8.4504H25.9284V7.8504ZM26.2284 12.699V8.1504H25.6284V12.699H26.2284ZM26.2284 29.5325V12.699H25.6284V29.5325H26.2284ZM26.2284 34.08V29.5325H25.6284V34.08H26.2284ZM21.381 34.38H25.9284V33.78H21.381V34.38ZM4.54632 34.38H21.381V33.78H4.54632V34.38ZM0 34.38H4.54632V33.78H0V34.38ZM-0.3 29.5325V34.08H0.3V29.5325H-0.3ZM-0.3 12.699V29.5325H0.3V12.699H-0.3ZM-0.3 8.1504V12.699H0.3V8.1504H-0.3ZM4.54632 7.8504H0V8.4504H4.54632V7.8504ZM4.54632 29.8337H21.381V29.2337H4.54632V29.8337ZM4.24632 12.699V29.5337H4.84632V12.699H4.24632ZM21.381 12.399H4.54632V12.999H21.381V12.399ZM21.681 29.5337V12.699H21.081V29.5337H21.681Z" fill="white" fill-opacity="0.732272" mask="url(#path-1-inside-1_0_59)"/>
</svg>

<svg width="100" height="35" fill="none" xmlns="http://www.w3.org/2000/svg"><mask id="a" fill="#fff"><path fill-rule="evenodd" clip-rule="evenodd" d="M95.131 4.55h4.548V0H95.13v4.55zm4.548 29.52H95.13V8.16h4.548v25.91zm-68.7-25.91v25.91h4.547V12.71h12.483v21.36h4.547V8.16H30.978zm26.124 0v25.91h4.549V12.71h9.855v21.36h4.549V12.71h9.855v21.36h4.548V8.16H57.103zM4.546 8.15h21.382v25.93H0V8.15h4.546zm16.835 21.384H4.546V12.699h16.835v16.835z"/></mask><path fill-rule="evenodd" clip-rule="evenodd" d="M95.131 4.55h4.548V0H95.13v4.55zm4.548 29.52H95.13V8.16h4.548v25.91zm-68.7-25.91v25.91h4.547V12.71h12.483v21.36h4.547V8.16H30.978zm26.124 0v25.91h4.549V12.71h9.855v21.36h4.549V12.71h9.855v21.36h4.548V8.16H57.103zM4.546 8.15h21.382v25.93H0V8.15h4.546zm16.835 21.384H4.546V12.699h16.835v16.835z" fill="#FEFEFE"/><path d="M99.679 4.55v.3h.3v-.3h-.3zm-4.548 0h-.3v.3h.3v-.3zM99.68 0h.3v-.3h-.3V0zm-4.55 0v-.3h-.3V0h.3zm0 34.07h-.3v.3h.3v-.3zm4.548 0v.3h.3v-.3h-.3zM95.13 8.16v-.3h-.3v.3h.3zm4.548 0h.3v-.3h-.3v.3zm-68.7 25.91h-.3v.3h.3v-.3zm0-25.91v-.3h-.3v.3h.3zm4.547 25.91v.3h.3v-.3h-.3zm0-21.36v-.3h-.3v.3h.3zm12.483 0h.3v-.3h-.3v.3zm0 21.36h-.3v.3h.3v-.3zm4.547 0v.3h.3v-.3h-.3zm0-25.91h.3v-.3h-.3v.3zm4.547 25.91h-.3v.3h.3v-.3zm0-25.91v-.3h-.3v.3h.3zm4.549 25.91v.3h.3v-.3h-.3zm0-21.36v-.3h-.3v.3h.3zm9.855 0h.3v-.3h-.3v.3zm0 21.36h-.3v.3h.3v-.3zm4.549 0v.3h.3v-.3h-.3zm0-21.36v-.3h-.3v.3h.3zm9.855 0h.3v-.3h-.3v.3zm0 21.36h-.3v.3h.3v-.3zm4.548 0v.3h.3v-.3h-.3zm0-25.91h.3v-.3h-.3v.3zm-64.53-.01h.3v-.3h-.3v.3zm0 25.93v.3h.3v-.3h-.3zM0 34.08h-.3v.3H0v-.3zM0 8.15v-.3h-.3v.3H0zm4.546 21.384h-.3v.3h.3v-.3zm16.835 0v.3h.3v-.3h-.3zM4.546 12.699v-.3h-.3v.3h.3zm16.835 0h.3v-.3h-.3v.3zm78.298-8.448H95.13v.6h4.548v-.6zM99.379 0v4.55h.6V0h-.6zM95.13.3h4.548v-.6H95.13v.6zm.3 4.25V0h-.6v4.55h.6zm-.3 29.82h4.548v-.6H95.13v.6zm-.3-26.21v25.91h.6V8.16h-.6zm4.848-.3H95.13v.6h4.548v-.6zm.3 26.21V8.16h-.6v25.91h.6zm-68.7 0V8.16h-.6v25.91h.6zm4.247-.3h-4.548v.6h4.548v-.6zm-.3-21.06v21.36h.6V12.71h-.6zm12.783-.3H35.526v.6h12.483v-.6zm.3 21.66V12.71h-.6v21.36h.6zm4.247-.3H48.01v.6h4.547v-.6zm-.3-25.61v25.91h.6V8.16h-.6zm-21.278.3h21.578v-.6H30.978v.6zm26.425 25.61V8.16h-.6v25.91h.6zm4.249-.3h-4.549v.6h4.549v-.6zm-.3-21.06v21.36h.6V12.71h-.6zm10.155-.3h-9.855v.6h9.855v-.6zm.3 21.66V12.71h-.6v21.36h.6zm4.249-.3h-4.549v.6h4.549v-.6zm-.3-21.06v21.36h.6V12.71h-.6zm10.155-.3h-9.855v.6h9.855v-.6zm.3 21.66V12.71h-.6v21.36h.6zm4.248-.3H85.91v.6h4.548v-.6zm-.3-25.61v25.91h.6V8.16h-.6zm-33.056.3H90.46v-.6H57.103v.6zM21.38 7.85H4.546v.6h16.835v-.6zm4.547 0H21.38v.6h4.547v-.6zm.3 4.849V8.15h-.6v4.55h.6zm0 16.834V12.698h-.6v16.834h.6zm0 4.547v-4.547h-.6v4.547h.6zm-4.847.3h4.547v-.6H21.38v.6zm-16.835 0H21.38v-.6H4.546v.6zM0 34.38h4.546v-.6H0v.6zm-.3-4.848v4.548h.6v-4.547h-.6zm0-16.833v16.834h.6V12.698h-.6zm0-4.549v4.55h.6V8.15h-.6zm4.846-.3H0v.6h4.546v-.6zm0 21.984h16.835v-.6H4.546v.6zm-.3-17.135v16.835h.6V12.699h-.6zm17.135-.3H4.546v.6h16.835v-.6zm.3 17.135V12.699h-.6v16.835h.6z" fill="#fff" fill-opacity=".732" mask="url(#a)"/></svg>
